X:15099
T:Scottish de Penhoet (Michel Marre)
C:Trad 1, 105
M:2/4
L:1/16
K:G
d2d2 d3d|cBAB GGAB|\
c2c2 c3c|1 ABcd cBAG:|2 ABcd G4||
|:d2d2 g4|gfga fed2|\
c2cg B2B2|1 AGAc BAG2:|2  AGAB G4||
